src/images/services/moving.svg

<?xml version="1.0" encoding="iso-8859-1"?>
<!-- Generator: Adobe Illustrator 19.0.0, SVG Export Plug-In . SVG Version: 6.00 Build 0)  -->
<svg version="1.1" id="Capa_1" xmlns="http://www.w3.org/2000/svg" xmlns:xlink="http://www.w3.org/1999/xlink" x="0px" y="0px"
	 viewBox="0 0 512 512" style="enable-background:new 0 0 512 512;" xml:space="preserve">
<path style="fill:#656D78;" d="M128,408c26.48,0,48,21.52,48,48s-21.52,48-48,48s-48-21.52-48-48S101.52,408,128,408z M144,456
	c0-8.8-7.2-16-16-16s-16,7.2-16,16s7.2,16,16,16S144,464.8,144,456z"/>
<g>
	<path style="fill:#CCD1D9;" d="M128,440c8.8,0,16,7.2,16,16s-7.2,16-16,16s-16-7.2-16-16S119.2,440,128,440z"/>
	<path style="fill:#CCD1D9;" d="M392,440c8.8,0,16,7.2,16,16s-7.2,16-16,16s-16-7.2-16-16S383.2,440,392,440z"/>
</g>
<path style="fill:#656D78;" d="M344,456c0-26.48,21.52-48,48-48s48,21.52,48,48s-21.52,48-48,48S344,482.48,344,456z M408,456
	c0-8.8-7.2-16-16-16s-16,7.2-16,16s7.2,16,16,16S408,464.8,408,456z"/>
<path style="fill:#FFCE54;" d="M504,424v32h-64c0-26.48-21.52-48-48-48s-48,21.52-48,48H176c0-26.48-21.52-48-48-48s-48,21.52-48,48
	l-56,0.16V424H8V320h32h120h48h120v-96h40v72c0,17.68,14.32,32,32,32h96v56v40H504z"/>
<path style="fill:#5D9CEC;" d="M448,224l48,104h-96c-17.68,0-32-14.32-32-32v-72H448z"/>
<polygon style="fill:#F6BB42;" points="496,424 496,384 496,328 464,328 464,384 464,456 504,456 504,424 "/>
<polygon style="fill:#4A89DC;" points="496,328 448,224 416,224 464,328 "/>
<polygon style="fill:#ED5565;" points="352,128 352,160 328,142.88 184,40 40,142.88 16,160 16,128 184,8 "/>
<g>
	<rect x="240" y="184" style="fill:#5D9CEC;" width="56" height="56"/>
	<path style="fill:#5D9CEC;" d="M184,112c13.28,0,24,10.72,24,24s-10.72,24-24,24s-24-10.72-24-24S170.72,112,184,112z"/>
</g>
<rect x="160" y="224" style="fill:#ED5565;" width="48" height="96"/>
<rect x="72" y="184" style="fill:#5D9CEC;" width="56" height="56"/>
<path style="fill:#E6E9ED;" d="M328,224v96H208v-96h-48v96H40V142.88L184,40l144,102.88V224z M296,240v-56h-56v56H296z M208,136
	c0-13.28-10.72-24-24-24s-24,10.72-24,24s10.72,24,24,24S208,149.28,208,136z M128,240v-56H72v56H128z"/>
<polygon style="fill:#CCD1D9;" points="296,120.024 296,168.8 296,184 296,240 296,320 328,320 328,224 328,142.88 "/>
<polygon style="fill:#DA4453;" points="320,137.168 328,142.88 352,160 352,128 320,105.144 "/>
<path d="M328,368c-4.424,0-8-3.576-8-8V224c0-4.424,3.576-8,8-8s8,3.576,8,8v136C336,364.424,332.424,368,328,368z"/>
<path d="M504,432h-23.832c-4.424,0-8-3.576-8-8s3.576-8,8-8H504c4.424,0,8,3.576,8,8S508.424,432,504,432z"/>
<path d="M504,464c-4.424,0-8-3.576-8-8v-32c0-4.424,3.576-8,8-8s8,3.576,8,8v32C512,460.424,508.424,464,504,464z"/>
<path d="M24,464.168c-4.408,0-7.984-3.56-8-7.976c-0.016-4.424,3.552-8.008,7.976-8.024l56-0.168c0.008,0,0.016,0,0.024,0
	c4.408,0,7.984,3.56,8,7.976c0.016,4.424-3.552,8.008-7.976,8.024l-56,0.168C24.016,464.168,24.008,464.168,24,464.168z"/>
<path d="M496,392h-8c-4.424,0-8-3.576-8-8s3.576-8,8-8h8c4.424,0,8,3.576,8,8S500.424,392,496,392z"/>
<path d="M496,432c-4.424,0-8-3.576-8-8v-96c0-4.424,3.576-8,8-8s8,3.576,8,8v96C504,428.424,500.424,432,496,432z"/>
<path d="M448,232H328c-4.424,0-8-3.576-8-8s3.576-8,8-8h120c4.424,0,8,3.576,8,8S452.424,232,448,232z"/>
<path d="M496.008,336c-3.024,0-5.92-1.72-7.272-4.648l-48-104c-1.848-4.008-0.104-8.768,3.912-10.616
	c4.024-1.848,8.768-0.104,10.616,3.912l48,104c1.848,4.008,0.104,8.768-3.912,10.616C498.264,335.768,497.128,336,496.008,336z"/>
<path d="M24,464.504c-4.424,0-8-3.576-8-8V424c0-4.424,3.576-8,8-8s8,3.576,8,8v32.504C32,460.92,28.424,464.504,24,464.504z"/>
<path d="M8,432c-4.424,0-8-3.576-8-8V320c0-4.424,3.576-8,8-8s8,3.576,8,8v104C16,428.424,12.424,432,8,432z"/>
<path d="M328,328H8c-4.424,0-8-3.576-8-8s3.576-8,8-8h320c4.424,0,8,3.576,8,8S332.424,328,328,328z"/>
<path d="M48,432H8c-4.424,0-8-3.576-8-8s3.576-8,8-8h40c4.424,0,8,3.576,8,8S52.424,432,48,432z"/>
<path d="M128,512c-30.872,0-56-25.128-56-56s25.128-56,56-56s56,25.128,56,56S158.872,512,128,512z M128,416
	c-22.056,0-40,17.944-40,40s17.944,40,40,40s40-17.944,40-40S150.056,416,128,416z"/>
<path d="M128,480c-13.232,0-24-10.768-24-24s10.768-24,24-24s24,10.768,24,24S141.232,480,128,480z M128,448c-4.416,0-8,3.584-8,8
	s3.584,8,8,8c4.416,0,8-3.584,8-8S132.416,448,128,448z"/>
<path d="M392,480c-13.232,0-24-10.768-24-24s10.768-24,24-24s24,10.768,24,24S405.232,480,392,480z M392,448c-4.416,0-8,3.584-8,8
	s3.584,8,8,8s8-3.584,8-8S396.416,448,392,448z"/>
<path d="M392,512c-30.872,0-56-25.128-56-56s25.128-56,56-56s56,25.128,56,56S422.872,512,392,512z M392,416
	c-22.056,0-40,17.944-40,40s17.944,40,40,40s40-17.944,40-40S414.056,416,392,416z"/>
<path d="M344.2,464H176c-4.424,0-8-3.576-8-8s3.576-8,8-8h168.2c4.424,0,8,3.576,8,8S348.624,464,344.2,464z"/>
<path d="M504,464h-64c-4.424,0-8-3.576-8-8s3.576-8,8-8h64c4.424,0,8,3.576,8,8S508.424,464,504,464z"/>
<path d="M496,336h-96c-4.424,0-8-3.576-8-8s3.576-8,8-8h96c4.424,0,8,3.576,8,8S500.424,336,496,336z"/>
<path d="M400,336c-22.056,0-40-17.944-40-40c0-4.424,3.576-8,8-8s8,3.576,8,8c0,13.232,10.768,24,24,24c4.424,0,8,3.576,8,8
	S404.424,336,400,336z"/>
<path d="M368,304c-4.424,0-8-3.576-8-8v-72c0-4.424,3.576-8,8-8s8,3.576,8,8v72C376,300.424,372.424,304,368,304z"/>
<path d="M352,168c-4.424,0-8-3.576-8-8v-32c0-4.424,3.576-8,8-8s8,3.576,8,8v32C360,164.424,356.424,168,352,168z"/>
<path d="M40,328c-4.424,0-8-3.576-8-8V142.856c0-4.424,3.576-8,8-8s8,3.576,8,8V320C48,324.424,44.424,328,40,328z"/>
<path d="M328,328c-4.424,0-8-3.576-8-8V142.856c0-4.424,3.576-8,8-8s8,3.576,8,8V320C336,324.424,332.424,328,328,328z"/>
<path d="M351.992,136c-1.608,0-3.232-0.488-4.64-1.496L184,17.832L20.648,134.504c-3.584,2.576-8.584,1.736-11.16-1.856
	s-1.736-8.592,1.856-11.16l168-120c2.784-1.984,6.512-1.984,9.296,0l168,120c3.592,2.56,4.432,7.56,1.856,11.16
	C356.944,134.832,354.496,136,351.992,136z"/>
<path d="M351.992,168c-1.608,0-3.232-0.488-4.64-1.496L184,49.832L20.648,166.504c-3.584,2.568-8.584,1.736-11.16-1.856
	s-1.736-8.592,1.856-11.16l168-120c2.784-1.984,6.512-1.984,9.296,0l168,120c3.592,2.56,4.432,7.56,1.856,11.16
	C356.944,166.832,354.496,168,351.992,168z"/>
<path d="M16,168c-4.424,0-8-3.576-8-8v-32c0-4.424,3.576-8,8-8s8,3.576,8,8v32C24,164.424,20.424,168,16,168z"/>
<path d="M208,328c-4.424,0-8-3.576-8-8v-96c0-4.424,3.576-8,8-8s8,3.576,8,8v96C216,324.424,212.424,328,208,328z"/>
<path d="M208,232h-48c-4.424,0-8-3.576-8-8s3.576-8,8-8h48c4.424,0,8,3.576,8,8S212.424,232,208,232z"/>
<path d="M160,328c-4.424,0-8-3.576-8-8v-96c0-4.424,3.576-8,8-8s8,3.576,8,8v96C168,324.424,164.424,328,160,328z"/>
<path d="M128,248H72c-4.424,0-8-3.576-8-8v-56c0-4.424,3.576-8,8-8h56c4.424,0,8,3.576,8,8v56C136,244.424,132.424,248,128,248z
	 M80,232h40v-40H80V232z"/>
<path d="M296,248h-56c-4.424,0-8-3.576-8-8v-56c0-4.424,3.576-8,8-8h56c4.424,0,8,3.576,8,8v56C304,244.424,300.424,248,296,248z
	 M248,232h40v-40h-40V232z"/>
<path d="M184,168c-17.648,0-32-14.352-32-32s14.352-32,32-32s32,14.352,32,32S201.648,168,184,168z M184,120
	c-8.824,0-16,7.176-16,16s7.176,16,16,16s16-7.176,16-16S192.824,120,184,120z"/>
<g>
</g>
<g>
</g>
<g>
</g>
<g>
</g>
<g>
</g>
<g>
</g>
<g>
</g>
<g>
</g>
<g>
</g>
<g>
</g>
<g>
</g>
<g>
</g>
<g>
</g>
<g>
</g>
<g>
</g>
</svg>

<svg width="512" height="512" viewBox="0 0 512 512" fill="none" xmlns="http://www.w3.org/2000/svg">
<path d="M128 408C154.48 408 176 429.52 176 456C176 482.48 154.48 504 128 504C101.52 504 80 482.48 80 456C80 429.52 101.52 408 128 408ZM144 456C144 447.2 136.8 440 128 440C119.2 440 112 447.2 112 456C112 464.8 119.2 472 128 472C136.8 472 144 464.8 144 456Z" fill="#656D78"/>
<path d="M128 440C136.8 440 144 447.2 144 456C144 464.8 136.8 472 128 472C119.2 472 112 464.8 112 456C112 447.2 119.2 440 128 440Z" fill="#E9E9EA"/>
<path d="M392 440C400.8 440 408 447.2 408 456C408 464.8 400.8 472 392 472C383.2 472 376 464.8 376 456C376 447.2 383.2 440 392 440Z" fill="#E9E9EA"/>
<path d="M344 456C344 429.52 365.52 408 392 408C418.48 408 440 429.52 440 456C440 482.48 418.48 504 392 504C365.52 504 344 482.48 344 456ZM408 456C408 447.2 400.8 440 392 440C383.2 440 376 447.2 376 456C376 464.8 383.2 472 392 472C400.8 472 408 464.8 408 456Z" fill="#656D78"/>
<path d="M504 424V456H440C440 429.52 418.48 408 392 408C365.52 408 344 429.52 344 456H176C176 429.52 154.48 408 128 408C101.52 408 80 429.52 80 456L24 456.16V424H8V320H40H160H208H328V224H368V296C368 313.68 382.32 328 400 328H496V384V424H504Z" fill="#575B7A"/>
<path d="M448 224L496 328H400C382.32 328 368 313.68 368 296V224H448Z" fill="#5692D8"/>
<path d="M496 424V384V328H464V384V456H504V424H496Z" fill="#575B7A"/>
<path d="M496 328L448 224H416L464 328H496Z" fill="#5692D8"/>
<path d="M280 224H58V320H280V224Z" fill="#AED559"/>
<path d="M328 321C323.576 321 320 318.53 320 315.474V221.526C320 218.47 323.576 216 328 216C332.424 216 336 218.47 336 221.526V315.474C336 318.53 332.424 321 328 321Z" fill="black"/>
<path d="M508.787 432H499.213C497.436 432 496 428.424 496 424C496 419.576 497.436 416 499.213 416H508.787C510.564 416 512 419.576 512 424C512 428.424 510.564 432 508.787 432Z" fill="black"/>
<path d="M504 464C499.576 464 496 460.424 496 456V424C496 419.576 499.576 416 504 416C508.424 416 512 419.576 512 424V456C512 460.424 508.424 464 504 464Z" fill="black"/>
<path d="M24 464.168C19.592 464.168 16.016 460.608 16 456.192C15.984 451.768 19.552 448.184 23.976 448.168L79.976 448C79.984 448 79.992 448 80 448C84.408 448 87.984 451.56 88 455.976C88.016 460.4 84.448 463.984 80.024 464L24.024 464.168C24.016 464.168 24.008 464.168 24 464.168Z" fill="black"/>
<path d="M496 392H488C483.576 392 480 388.424 480 384C480 379.576 483.576 376 488 376H496C500.424 376 504 379.576 504 384C504 388.424 500.424 392 496 392Z" fill="black"/>
<path d="M496 432C491.576 432 488 428.424 488 424V328C488 323.576 491.576 320 496 320C500.424 320 504 323.576 504 328V424C504 428.424 500.424 432 496 432Z" fill="black"/>
<path d="M448 232H328C323.576 232 320 228.424 320 224C320 219.576 323.576 216 328 216H448C452.424 216 456 219.576 456 224C456 228.424 452.424 232 448 232Z" fill="black"/>
<path d="M496.008 336C492.984 336 490.088 334.28 488.736 331.352L440.736 227.352C438.888 223.344 440.632 218.584 444.648 216.736C448.672 214.888 453.416 216.632 455.264 220.648L503.264 324.648C505.112 328.656 503.368 333.416 499.352 335.264C498.264 335.768 497.128 336 496.008 336Z" fill="black"/>
<path d="M24 464.504C19.576 464.504 16 460.928 16 456.504V424C16 419.576 19.576 416 24 416C28.424 416 32 419.576 32 424V456.504C32 460.92 28.424 464.504 24 464.504Z" fill="black"/>
<path d="M8 432C3.576 432 0 428.424 0 424V320C0 315.576 3.576 312 8 312C12.424 312 16 315.576 16 320V424C16 428.424 12.424 432 8 432Z" fill="black"/>
<path d="M31 433L4.57143 432C2.04343 432 0 428.424 0 424C0 419.576 2.04343 416 4.57143 416H23.5C25.0714 422.5 30 416 32 424C31.5 428.5 31.5 431 31 433Z" fill="black"/>
<path d="M128 512C97.128 512 72 486.872 72 456C72 425.128 97.128 400 128 400C158.872 400 184 425.128 184 456C184 486.872 158.872 512 128 512ZM128 416C105.944 416 88 433.944 88 456C88 478.056 105.944 496 128 496C150.056 496 168 478.056 168 456C168 433.944 150.056 416 128 416Z" fill="black"/>
<path d="M128 480C114.768 480 104 469.232 104 456C104 442.768 114.768 432 128 432C141.232 432 152 442.768 152 456C152 469.232 141.232 480 128 480ZM128 448C123.584 448 120 451.584 120 456C120 460.416 123.584 464 128 464C132.416 464 136 460.416 136 456C136 451.584 132.416 448 128 448Z" fill="black"/>
<path d="M392 480C378.768 480 368 469.232 368 456C368 442.768 378.768 432 392 432C405.232 432 416 442.768 416 456C416 469.232 405.232 480 392 480ZM392 448C387.584 448 384 451.584 384 456C384 460.416 387.584 464 392 464C396.416 464 400 460.416 400 456C400 451.584 396.416 448 392 448Z" fill="black"/>
<path d="M392 512C361.128 512 336 486.872 336 456C336 425.128 361.128 400 392 400C422.872 400 448 425.128 448 456C448 486.872 422.872 512 392 512ZM392 416C369.944 416 352 433.944 352 456C352 478.056 369.944 496 392 496C414.056 496 432 478.056 432 456C432 433.944 414.056 416 392 416Z" fill="black"/>
<path d="M344.2 464H176C171.576 464 168 460.424 168 456C168 451.576 171.576 448 176 448H344.2C348.624 448 352.2 451.576 352.2 456C352.2 460.424 348.624 464 344.2 464Z" fill="black"/>
<path d="M504 464H440C435.576 464 432 460.424 432 456C432 451.576 435.576 448 440 448H504C508.424 448 512 451.576 512 456C512 460.424 508.424 464 504 464Z" fill="black"/>
<path d="M496 336H400C395.576 336 392 332.424 392 328C392 323.576 395.576 320 400 320H496C500.424 320 504 323.576 504 328C504 332.424 500.424 336 496 336Z" fill="black"/>
<path d="M400 336C377.944 336 360 318.056 360 296C360 291.576 363.576 288 368 288C372.424 288 376 291.576 376 296C376 309.232 386.768 320 400 320C404.424 320 408 323.576 408 328C408 332.424 404.424 336 400 336Z" fill="black"/>
<path d="M368 304C363.576 304 360 300.424 360 296V224C360 219.576 363.576 216 368 216C372.424 216 376 219.576 376 224V296C376 300.424 372.424 304 368 304Z" fill="black"/>
<path d="M288 328C283.576 328 280 324.424 280 320V224C280 219.576 283.576 216 288 216C292.424 216 296 219.576 296 224V320C296 324.424 292.424 328 288 328Z" fill="black"/>
<path d="M50 328C45.576 328 42 324.424 42 320V224C42 219.576 45.576 216 50 216C54.424 216 58 219.576 58 224V320C58 324.424 54.424 328 50 328Z" fill="black"/>
<path d="M328 328H8C3.576 328 0 324.424 0 320C0 315.576 3.576 312 8 312H328C332.424 312 336 315.576 336 320C336 324.424 332.424 328 328 328Z" fill="black"/>
<path d="M278.5 232H60.1369C42.7189 232 44.0221 228.424 44.0221 224C47.5 229 35.582 216 53 216H289.5C300 224 289.5 224 296 224C296 228.424 295.918 232 278.5 232Z" fill="black"/>
<path d="M93 216H108V312H93V216Z" fill="#E9E9EA"/>
<path d="M233 216H248V312H233V216Z" fill="#E9E9EA"/>
</svg>
